icon-themes/breeze_svg/cmd/32/insertframe.svg

<svg xmlns="http://www.w3.org/2000/svg" width="32" height="32" viewBox="0 0 32 32"><path d="M22 17v5h-5v1h5v5h1v-5h5v-1h-5v-5h-1z" fill="#4d4d4d"/><path d="M4 4v24h13v-1H5V5h22v12h1V4H4z" fill="#f60"/><path d="M5 5v22h12v-1H6V6h20v11h1V5H5z" fill="#4d4d4d"/></svg>

<svg xmlns="http://www.w3.org/2000/svg" viewBox="0 0 32 32">
 <path 
     style="fill:#4d4d4d" 
     d="M 5 5 L 5 27 L 17 27 L 17 26 L 6 26 L 6 6 L 26 6 L 26 17 L 27 17 L 27 5 L 5 5 z M 22 17 L 22 22 L 17 22 L 17 23 L 22 23 L 22 28 L 23 28 L 23 23 L 28 23 L 28 22 L 23 22 L 23 17 L 22 17 z "
     />
 <path 
     style="fill:#f47750" 
     d="M 4 4 L 4 28 L 17 28 L 17 27 L 5 27 L 5 5 L 27 5 L 27 17 L 28 17 L 28 4 L 4 4 z "
     />
</svg>
